X:1

T:Whiskey Welcome Back Again

M:C

L:1/8

R:Strathspey

B:Stewart-Robertson – The Athole Collection  (1884)

Z:AK/Fiddler’s Companion

K:B_

B,<B B>d c>Bd>d|B<cG<B F>D C2|B<B B>d c>Bc>d|B<F G<B F>D B,2:|

d<f f>g f>dc>B|d<f f>g f>d ~c2|d<f f>g f>dc>d|~B>F G<B F>D B,2|

d<f f>g f>dc>B|d<f f>g f>dc>e|d<fc<d ~B>cd>c|B<F G<B F>D B,2||

 

WHISKEY YOU'RE THE DEVIL (Uisge Beata Is Tu an Diabal!).  AKA and see "The Gypsy Hornpipe [4]," "Off/Going to California [1]," "Fireman's Reel," "Possum Up a Gum Stump," "Lexington," "Old Towser," "Whiskey in the Jar [1]," "Buttermilk and Cider." Irish, Hornpipe. A Major. Standard tuning. AABB. One of the popular "Going/Off to California" tune family. O'Neill (Krassen), 1976; pg. 183. O'Neill (Music of Ireland: 1850 Melodies), 1903/1979; No. 1639, pg. 304. O'Neill (Dance Music of Ireland: 1001 Gems), 1907/1986; No. 866, pg. 149.

